X:1
T:In the Lowly Manger Lying
T:Harrison Millard, before 1883
T:In the Lowly Manger Lying
T:Public Domain
T:Public Domain
C:Harrison Millard, before 1883
Z:Public Domain
%%score ( 1 2 ) 3 ( 4 5 )
L:1/8
M:4/4
K:D
V:1 treble 
V:2 treble 
V:3 treble 
V:4 bass 
V:5 bass 
V:1
 [DF]2 [DA]2 [DB]2 [DA]2 | [DF]2 [DA]2 [DB]2 [DA]2 | [Fd]2 ([Ec]D) [Dc]2 ([DB][CA]) | %3
w: 1.~In the low- ly|man- ger ly- ing,|See, the * love- ly *|
w: 2.~Won- d’ring shep- herds|watch- ing night- ly,|Saw the * star a- *|
w: 3.~Tell the sweet and|won- drous sto- ry,|How the * Son of *|
w: 4.~Sing of how He|came to mor- tals|Thro’ His * love and *|
 [DB]2 ([CA][D^G]) [CA]2 z2 | [DF]2 [DA]2 [DB]2 [DA]2 | [DF]2 [DA]2 [DB]2 [DA]2 | %6
w: Babe ap- * pears!|Round Him beams the|light un- dy- ing,|
w: bove them * shine,|And it led them,|gleam- ing bright- ly,|
w: God on * high,|Left His home of|peace and glo- ry,|
w: kind- li- * ness!|How He o- pened|Heav’n’s bright por- tals,|
 [Fd]3 [Fd] (ce)(Ac) | [EF]2 [DB]2 [CA]2 z2 ||"^Refrain  Girls" A3 B c2 (BA) | d2 A2 F2 D2 | %10
w: And His smile * thro’ *|cheers! * *|||
w: To the Lord * of *|vine! An- gels|wake the bless- èd *|cho- rus, Lo! the|
w: In the realms * be- *|sky! * *|||
w: All His child- * ren *|bless! * *|||
"^Boys" A3 B c2 (BA) | d2 F2 A2 z2 |"^Tutti" [Fd]3 [Fd] [Ec]3 [Ec] | [DB]2 [GB]2 [FA]2 [DF]2 | %14
w: ||||
w: night hath passed a- *|way! See, the|King who reign- eth|o’er us Was a|
w: ||||
w: ||||
 [DB]3 [DB]"^a tempo" [DA]2 [EG]2 | [DF]2 [CE]2 D4 |] %16
w: ||
w: Babe on Christ- mas|day! * *|
w: ||
w: ||
V:2
 x8 | x8 | x8 | x8 | x8 | x8 | x4 F2 C2 | x8 || x8 | x8 | x8 | x8 | x8 | x8 | x8 | x4 D4 |] %16
w: ||||||dark- ness||||||||||
w: ||||||love di-||||||||||
w: ||||||yond the||||||||||
w: ||||||there to||||||||||
V:3
 z8 | z8 | z8 | z8 | z8 | z8 | z8 | z8 || z (A,[CG]A,) z (A,[CG]A,) | z (G,[DF]G,) z (G,[DF]G,) | %10
 z (A,[CG]A,) z (A,[CG]A,) | z (G,[DF]G,) z (G,[DF]G,) | x8 | x8 | x8 | x8 |] %16
V:4
 [D,A,]2 [D,F,]2 [D,G,]2 [D,F,]2 | [D,A,]2 [D,F,]2 [D,G,]2 [D,F,]2 | %2
 [B,,F,]2 [B,,F,]2 [E,A,]2 [E,A,]2 | [E,^G,]2 (A,B,) [A,,A,]2 z2 | %4
 [D,A,]2 [D,F,]2 [D,G,]2 [D,F,]2 | [D,A,]2 [D,F,]2 [D,G,]2 [D,F,]2 | %6
 [B,,B,]3 [B,,B,] [E,A,]2 [E,A,]2 | [E,^G,]2 [E,G,]2 [A,,A,]2 z2 || [A,,,A,,] z3 [A,,,A,,] z3 | %9
 [D,,D,] z3 [D,,D,] z3 | [A,,,A,,] z3 [A,,,A,,] z3 | [D,,D,] z3 [D,,D,] z3 | %12
 [B,,B,]3 [B,,B,] [F,A,]3 [F,A,] | [G,B,]2 [G,D]2 [D,D]2 [D,A,]2 | G,3 G, [F,A,]2 [G,B,]2 | %15
 [A,,A,]2 [A,,G,]2 [D,F,]4 |] %16
V:5
 x8 | x8 | x8 | x2 E,2 x4 | x8 | x8 | x8 | x8 || x8 | x8 | x8 | x8 | x8 | x8 | G,3 G, x4 | x8 |] %16

